blockchains/ethereum/assets/0xC18360217D8F7Ab5e7c516566761Ea12Ce7F9D72/logo.svg

<svg fill="none" height="250" viewBox="0 0 250 250" width="250" xmlns="http://www.w3.org/2000/svg" xmlns:xlink="http://www.w3.org/1999/xlink"><linearGradient id="a"><stop offset=".58" stop-color="#a0a8d4"/><stop offset=".73" stop-color="#8791c7"/><stop offset=".91" stop-color="#6470b4"/></linearGradient><linearGradient id="b" gradientUnits="userSpaceOnUse" x1="124.293" x2="56.1403" xlink:href="#a" y1="33.4474" y2="106.528"/><linearGradient id="c" gradientUnits="userSpaceOnUse" x1="125.708" x2="193.835" xlink:href="#a" y1="216.706" y2="143.677"/><linearGradient id="d" gradientUnits="userSpaceOnUse" x1="124.937" x2="124.937" y1="30.3232" y2="219.445"><stop offset="0" stop-color="#513eff"/><stop offset=".18" stop-color="#5157ff"/><stop offset=".57" stop-color="#5298ff"/><stop offset="1" stop-color="#52e5ff"/></linearGradient><clipPath id="e"><path d="m41.6667 31.25h166.667v187.5h-166.667z"/></clipPath><path d="m125.4 248.947c68.456 0 123.95-55.494 123.95-123.95 0-68.4558-55.494-123.95012-123.95-123.95012-68.4557 0-123.95005 55.49432-123.95005 123.95012 0 68.456 55.49435 123.95 123.95005 123.95z" fill="#fff"/><g clip-path="url(#e)"><path d="m62.9873 107.27c1.834 3.94 6.4191 11.82 6.4191 11.82l52.4986-87.84-51.1231 36.1557c-2.9803 2.086-5.5021 4.8672-7.3361 8.1119-4.8143 9.966-4.8143 21.5544-.4585 31.7524z" fill="url(#b)"/><path d="m42.3545 136.01c1.1463 16.919 9.6286 32.679 22.9253 42.877l56.6252 39.864s-35.534-51.684-65.3368-103.137c-2.9803-5.33-5.0436-11.356-5.9606-17.6141-.4585-2.7812-.4585-5.5624 0-8.3437-.6878 1.3907-2.2925 4.4036-2.2925 4.4036-2.9803 6.2582-5.0436 12.9792-6.1898 19.9322-.6878 7.416-.6878 14.833.2292 22.018z" fill="#a0a8d4"/><path d="m186.784 142.961c-1.834-3.94-6.419-11.82-6.419-11.82l-52.499 87.608 51.352-35.924c2.981-2.086 5.502-4.867 7.336-8.112 4.585-9.966 4.815-21.554.23-31.752z" fill="url(#c)"/><path d="m207.646 113.991c-1.147-16.919-9.629-32.6792-22.926-42.877l-56.625-39.864s35.534 51.6842 65.337 103.137c2.98 5.33 5.044 11.356 5.961 17.614.458 2.781.458 5.562 0 8.344.687-1.391 2.292-4.404 2.292-4.404 2.98-6.258 5.044-12.979 6.19-19.7.458-7.649.458-14.833-.229-22.25z" fill="#a0a8d4"/><path d="m63.4457 75.5176c1.8341-3.2447 4.1266-6.0259 7.3361-8.1119l51.1232-36.1557-52.4987 87.608s-4.585-7.88-6.4191-11.82c-4.3558-9.966-4.3558-21.5544.4585-31.5204zm-21.0912 60.4914c1.1463 16.919 9.6286 32.679 22.9253 42.877l56.6252 39.864s-35.534-51.684-65.3368-103.137c-2.9803-5.33-5.0436-11.356-5.9606-17.6139-.4585-2.7812-.4585-5.5625 0-8.3437-.6878 1.3906-2.2925 4.4036-2.2925 4.4036-2.9803 6.258-5.0436 12.979-6.1898 19.932-.6878 7.417-.6878 14.833.2292 22.018zm144.4295 6.953c-1.834-3.94-6.419-11.82-6.419-11.82l-52.499 87.608 51.352-35.924c2.981-2.086 5.502-4.867 7.336-8.112 4.585-9.966 4.815-21.554.23-31.752zm20.632-28.739c-1.146-16.9192-9.628-32.6794-22.925-42.8772l-56.396-40.0958s35.534 51.6842 65.337 103.137c2.98 5.33 5.044 11.356 5.961 17.614.458 2.781.458 5.562 0 8.344.687-1.391 2.292-4.404 2.292-4.404 2.98-6.258 5.044-12.979 6.19-19.7.458-7.649.458-14.833-.459-22.018z" fill="url(#d)"/></g></svg>

<svg width="250" height="250" viewBox="0 0 250 250" fill="none" xmlns="http://www.w3.org/2000/svg">
<path d="M125.4 248.947C193.856 248.947 249.35 193.453 249.35 124.997C249.35 56.5412 193.856 1.04688 125.4 1.04688C56.9443 1.04688 1.44995 56.5412 1.44995 124.997C1.44995 193.453 56.9443 248.947 125.4 248.947Z" fill="white"/>
<g clip-path="url(#clip0_50_11342)">
<path d="M62.9873 107.27C64.8213 111.21 69.4064 119.09 69.4064 119.09L121.905 31.25L70.7819 67.4057C67.8016 69.4917 65.2798 72.2729 63.4458 75.5176C58.6315 85.4836 58.6315 97.072 62.9873 107.27Z" fill="url(#paint0_linear_50_11342)"/>
<path d="M42.3545 136.01C43.5008 152.929 51.9831 168.689 65.2798 178.887L121.905 218.751C121.905 218.751 86.371 167.067 56.5682 115.614C53.5879 110.284 51.5246 104.258 50.6076 97.9999C50.1491 95.2187 50.1491 92.4375 50.6076 89.6562C49.9198 91.0469 48.3151 94.0598 48.3151 94.0598C45.3348 100.318 43.2715 107.039 42.1253 113.992C41.4375 121.408 41.4375 128.825 42.3545 136.01Z" fill="#A0A8D4"/>
<path d="M186.784 142.961C184.95 139.021 180.365 131.141 180.365 131.141L127.866 218.749L179.218 182.825C182.199 180.739 184.72 177.958 186.554 174.713C191.139 164.747 191.369 153.159 186.784 142.961Z" fill="url(#paint1_linear_50_11342)"/>
<path d="M207.646 113.991C206.499 97.072 198.017 81.3118 184.72 71.114L128.095 31.25C128.095 31.25 163.629 82.9342 193.432 134.387C196.412 139.717 198.476 145.743 199.393 152.001C199.851 154.782 199.851 157.563 199.393 160.345C200.08 158.954 201.685 155.941 201.685 155.941C204.665 149.683 206.729 142.962 207.875 136.241C208.333 128.592 208.333 121.408 207.646 113.991Z" fill="#A0A8D4"/>
<path d="M63.4457 75.5176C65.2798 72.2729 67.5723 69.4917 70.7818 67.4057L121.905 31.25L69.4063 118.858C69.4063 118.858 64.8213 110.978 62.9872 107.038C58.6314 97.072 58.6314 85.4836 63.4457 75.5176ZM42.3545 136.009C43.5008 152.928 51.9831 168.688 65.2798 178.886L121.905 218.75C121.905 218.75 86.371 167.066 56.5682 115.613C53.5879 110.283 51.5246 104.257 50.6076 97.9991C50.1491 95.2179 50.1491 92.4366 50.6076 89.6554C49.9198 91.046 48.3151 94.059 48.3151 94.059C45.3348 100.317 43.2715 107.038 42.1253 113.991C41.4375 121.408 41.4375 128.824 42.3545 136.009ZM186.784 142.962C184.95 139.022 180.365 131.142 180.365 131.142L127.866 218.75L179.218 182.826C182.199 180.74 184.72 177.959 186.554 174.714C191.139 164.748 191.369 153.16 186.784 142.962ZM207.416 114.223C206.27 97.3038 197.788 81.5436 184.491 71.3458L128.095 31.25C128.095 31.25 163.629 82.9342 193.432 134.387C196.412 139.717 198.476 145.743 199.393 152.001C199.851 154.782 199.851 157.563 199.393 160.345C200.08 158.954 201.685 155.941 201.685 155.941C204.665 149.683 206.729 142.962 207.875 136.241C208.333 128.592 208.333 121.408 207.416 114.223Z" fill="url(#paint2_linear_50_11342)"/>
</g>
<defs>
<linearGradient id="paint0_linear_50_11342" x1="124.293" y1="33.4474" x2="56.1403" y2="106.528" gradientUnits="userSpaceOnUse">
<stop offset="0.58" stop-color="#A0A8D4"/>
<stop offset="0.73" stop-color="#8791C7"/>
<stop offset="0.91" stop-color="#6470B4"/>
</linearGradient>
<linearGradient id="paint1_linear_50_11342" x1="125.708" y1="216.706" x2="193.835" y2="143.677" gradientUnits="userSpaceOnUse">
<stop offset="0.58" stop-color="#A0A8D4"/>
<stop offset="0.73" stop-color="#8791C7"/>
<stop offset="0.91" stop-color="#6470B4"/>
</linearGradient>
<linearGradient id="paint2_linear_50_11342" x1="124.937" y1="30.3232" x2="124.937" y2="219.445" gradientUnits="userSpaceOnUse">
<stop stop-color="#513EFF"/>
<stop offset="0.18" stop-color="#5157FF"/>
<stop offset="0.57" stop-color="#5298FF"/>
<stop offset="1" stop-color="#52E5FF"/>
</linearGradient>
<clipPath id="clip0_50_11342">
<rect width="166.667" height="187.5" fill="white" transform="translate(41.6667 31.25)"/>
</clipPath>
</defs>
</svg>
